public/icons/planner.svg

<svg width="24" height="24" viewBox="0 0 24 24" fill="none" xmlns="http://www.w3.org/2000/svg">
<g clip-path="url(#clip0_1_1309)">
<path d="M7.20811 3.62598H6.24974C5.74139 3.62598 5.25386 3.82792 4.89441 4.18737C4.53495 4.54683 4.33301 5.03436 4.33301 5.54271V18.9598C4.33301 19.4682 4.53495 19.9557 4.89441 20.3152C5.25386 20.6746 5.74139 20.8766 6.24974 20.8766H17.7501C18.2585 20.8766 18.746 20.6746 19.1055 20.3152C19.4649 19.9557 19.6669 19.4682 19.6669 18.9598V8.25297C19.6668 7.74466 19.4648 7.25721 19.1053 6.89784L16.395 4.18758C16.0356 3.8281 15.5482 3.62609 15.0399 3.62598H11.0416" stroke="#732E76" stroke-width="0.718775" stroke-linecap="round" stroke-linejoin="round"/>
<path d="M19.6678 8.41781H15.8343C15.5802 8.41781 15.3364 8.31684 15.1567 8.13711C14.9769 7.95738 14.876 7.71362 14.876 7.45944V3.62598" stroke="#732E76" stroke-width="0.718775" stroke-linecap="round" stroke-linejoin="round"/>
<path d="M10.0831 2.66748H8.16637C7.9122 2.66748 7.66844 2.76845 7.48871 2.94818C7.30898 3.12791 7.20801 3.37167 7.20801 3.62585V8.41768L9.12474 7.45931L11.0415 8.41768V3.62585C11.0415 3.37167 10.9405 3.12791 10.7608 2.94818C10.581 2.76845 10.3373 2.66748 10.0831 2.66748V2.66748Z" stroke="#732E76" stroke-width="0.718775" stroke-linecap="round" stroke-linejoin="round"/>
<path d="M7.20801 12.2515H15.8333" stroke="#732E76" stroke-width="0.718775" stroke-linecap="round" stroke-linejoin="round"/>
<path d="M7.20801 15.6055H15.8333" stroke="#732E76" stroke-width="0.718775" stroke-linecap="round" stroke-linejoin="round"/>
</g>
<defs>
<clipPath id="clip0_1_1309">
<rect width="23.0008" height="23.0008" fill="white" transform="translate(0.5 0.750977)"/>
</clipPath>
</defs>
</svg>

<svg xmlns="http://www.w3.org/2000/svg" width="24" height="24" fill="none">
  <g stroke="#732E76" stroke-linecap="round" stroke-linejoin="round" stroke-width=".719" clip-path="url(#a)">
    <path d="M7.208 3.626H6.25a1.917 1.917 0 0 0-1.917 1.917V18.96a1.917 1.917 0 0 0 1.917 1.917h11.5a1.917 1.917 0 0 0 1.917-1.917V8.253c0-.508-.202-.996-.562-1.355l-2.71-2.71a1.917 1.917 0 0 0-1.355-.562h-3.998"/>
    <path d="M19.668 8.418h-3.834a.958.958 0 0 1-.958-.959V3.626M10.083 2.667H8.166a.958.958 0 0 0-.958.959v4.792l1.917-.959 1.916.959V3.626a.958.958 0 0 0-.958-.959v0ZM7.208 12.252h8.625M7.208 15.605h8.625"/>
  </g>
  <defs>
    <clipPath id="a">
      <path fill="#fff" d="M.5.751h23.001v23.001H.5z"/>
    </clipPath>
  </defs>
</svg>
